X:0
T:Fluke and Flounder
M:6/8
C:© Paul Gitlitz 2008
R:Jig
K:G
"G"G,B,G "Em"EDB,|"G"G,B,G "C"EFG| "Am"AGA "G"BGB|"Am/E"AGE "D"DB,A,|!
"G"G,B,G "Em"EDB,|"G"G,B,G "C"EFG| "Am"AGA "G"BGB|"D"AGF "G"G2D:|!
|:"C"cec "Em/B"BeB|"C/A"cec "C/G"G2c|"G"BGB BGB|"Am/C"cBA "G"G2B|!
"C"cec "Em/B"BeB|"C/A"cec "C/G"G2c|"G"BGB "G/D"BGB|"C"c3 C3:|]
